img/box_logo_fiamma.svg

<svg viewBox="0 0 120 120" xmlns="http://www.w3.org/2000/svg"><path d="m10 10h25.128787l-.9567454 4.3583078c-.3140348 1.4408035-.6012274 2.8755611-.7956924 4.3220326-2.3606103 17.5556597 1.8680657 33.2915161 13.0719547 47.0382854 1.5977668 1.9618808 3.2766233 3.8587687 4.9449681 5.7617025 8.4391176 9.6252216 10.5836497 20.4366266 6.8227192 32.4098207l-.8937625 2.623574c-1.2407125 3.467913-1.6388628 3.486277-6.1677207 3.486277h-41.154508zm57.3119665.007019 42.6880335-.0055077v99.9984887h-25.0050918l1.0179067-4.949786c.3355469-1.648669.6374827-3.299795.8162407-4.964522 1.8461647-17.2094848-2.4350147-32.6386262-13.5074964-46.0456116l-3.5750161-4.2694636c-1.7811148-2.1418895-3.5170204-4.3172941-5.0474294-6.6287183-5.9891446-9.0468058-5.6691827-18.7721976-2.2998195-28.6623241l.4630991-1.3382221c.9894425-2.7611243 1.482481-3.0941671 4.4495732-3.1343333z" fill="#f0f0f0"/></svg>

<?xml version="1.0" encoding="UTF-8"?>
<svg viewBox="0 0 120 120" version="1.1" xmlns="http://www.w3.org/2000/svg" xmlns:xlink="http://www.w3.org/1999/xlink">
    <title>marco historico fiamma / logo grande</title>
    <g id="marco-historico-fiamma-/-logo-grande" stroke="none" stroke-width="1" fill="none" fill-rule="evenodd">
        <path d="M10,10 L35.128787,10 L34.1720416,14.3583078 C33.8580068,15.7991113 33.5708142,17.2338689 33.3763492,18.6803404 C31.0157389,36.2360001 35.2444149,51.9718565 46.4483039,65.7186258 C48.0460707,67.6805066 49.7249272,69.5773945 51.393272,71.4803283 C59.8323896,81.1055499 61.9769217,91.9169549 58.2159912,103.890149 L57.3222287,106.513723 C56.0815162,109.981636 55.6833659,110 51.154508,110 L10,110 L10,10 Z M67.3119665,10.007019 L110,10.0015113 L110,110 L84.9949082,110 L86.0128149,105.050214 C86.3483618,103.401545 86.6502976,101.750419 86.8290556,100.085692 C88.6752203,82.8762072 84.3940409,67.4470658 73.3215592,54.0400804 L69.7465431,49.7706168 C67.9654283,47.6287273 66.2295227,45.4533227 64.6991137,43.1418985 C58.7099691,34.0950927 59.029931,24.3697009 62.3992942,14.4795744 L62.8623933,13.1413523 C63.8518358,10.380228 64.3448743,10.0471852 67.3119665,10.007019 L67.3119665,10.007019 Z" id="Shape" fill="#F0F0F0" fill-rule="nonzero"></path>
    </g>
</svg>
